X:1
T:Here’s a health to the King
T:Joseph Stephenson
T:[London: 1758]
T:This edition by Edmund Gooch released into the public domain, June 2012.
T:Here’s a health to the King
T:A new Loyal Health To the Prince, Duke, and the Heroic King of Prussia.
C:Joseph Stephenson
Z:[London: 1758]
%%score [ 1 2 3 ] 4
L:1/8
M:3/8
K:C
V:1 treble nm="Alto" snm="A."
V:2 treble-8 transpose=-12 nm="Tenor" snm="T."
V:3 bass nm="Bass" snm="B."
V:4 bass nm="Bassoon" snm="Bsn."
V:1
 z | z3 | z z E/F/ | G>GA | B2 G | AAG | G2 E/D/ | E>DC | D3/2 z/ G/G/ | G>GA | B2 G | G>A^F | %12
w: ||Here’s a|health to the|King who|sits on the|throne, and to|glo- rious Prince|George, and to|glo- rious Prince|George, that’s|Heir to the|
 G2 :: G | GGF | D3/2(E/4F/4)G | E>FG | G2 z | z3 | z3 | z3 | z3 | z3 | z z E/F/ | G>G^F | GGG | %26
w: Crown:|Here’s|like- wise a|health to _ Duke|Wil- liam re-|nown’d,||||||And to|Prus- sia’s great|mon- arch, whose|
 G>GA | B2 G | A>AG | GGE | F(E/4F/4G/)A | G2 z | z3 | z z G/F/ | E>F(E/F/) | G3/2 z/ G/G/ | G>GA | %37
w: ac- tions are|crown’d with|lau- rels vic-|to- rious: Ye|Bri- tons, _ _ now|sing||of their|ho- nour and _|fame, of their|ho- nour and|
 B2 G | ATG>F | E2 :| %40
w: fame, so|God save the|King.|
V:2
 z | z3 | z z c/c/ | e>d(e/>f/) | (g>f)e | cdB | c2 c/B/ | c>BA | G3/2 z/ e/d/ | e>dc | d2 B | %11
w: ||Here’s a|health to the _|King _ who|sits on the|throne, and to|glo- rious Prince|George, and to|glo- rious Prince|George, that’s|
 cA>G | G2 :: d | eec | d>AG | g>fe | d2 z | z3 | z3 | z3 | z z c/c/ | f>ed | ecG/G/ | c>BA | BGB | %26
w: Heir to the|Crown:|Here’s|like- wise a|health to Duke|Wil- liam re-|nown’d,||||And to|Prus- sia’s great|mon- arch, and to|Prus- sia’s great|mon- arch, whose|
 c>d(e/f/) | (g>f)e | f>ed | ecg | a>g^f | (g>f)e/e/ | f>ed | e3/2 z/ c/B/ | c>d(c/d/) | %35
w: ac- tions are _|crown’d _ with|lau- rels vic-|to- rious: Ye|Bri- tons, now|sing _ of their|ho- nour and|fame, of their|ho- nour and _|
 e3/2 z/ e/d/ | e>f(e/f/) | (g>f)(e/>d/) | cTd>B | c2 :| %40
w: fame, of their|ho- nour and _|fame, _ so _|God save the|King.|
V:3
 C,/D,/ | E,>F,(E,/>F,/) | G,3/2 z/ C/B,/ | C>B,A, | G,2 C | A,F,G, | C,2 z | z3 | z z C/B,/ | %9
w: Here’s a|health to the _|King, here’s a|health to the|King who|sits on the|throne,||and to|
 C>B,A, | (G,>F,)E, | C,>A,,D, | [G,,G,]2 :: G, | CCC, | G,>F,E, | C,>D,(E,/F,/) | G,2 z | z3 | %19
w: glo- rious Prince|George, _ that’s|Heir to the|Crown:|Here’s|like- wise a|health to Duke|Wil- liam re- *|nown’d,||
 z z G,/G,/ | C>B,A, | B,G,A, | F,>F,G, | C,2 G, | E,C,D, | G,,G,,G, | C>B,A, | G,2 C | F,>F,G, | %29
w: And to|Prus- sia’s great|mon- arch, whose|ac- tions are|crown’d with|lau- rels vic-|to- rious, whose|ac- tions are|crown’d with|lau- rels vic-|
 C,C,C | A,DD, | G,2 A,/A,/ | D,>E,F, | E,3- | E,3- | E,3/2 z/ C/B,/ | C>B,A, | G,2 (C/>B,/) | %38
w: to- rious: Ye|Bri- tons, now|sing of their|ho- nour and|fame,|_|* of their|ho- nour and|fame, so _|
 (A,/^F,<)G,G,/ | C,2 :| %40
w: God _ save the|King.|
V:4
 C,/B,,/ | C,>D,E,/>F,/ | G,G,,C,- | C,3/2D,/4E,/4F,/D,/ | G,2 C | A,>F,G, | C,2 C,/G,,/ | C,2 D, | %8
 [G,,G,]2 C/B,/ | C>B,A, | G,>F,E, | C,>A,,D, | G,,2 :: G, | C2 C, | G,>F,E, | C,>B,,C, | G,,2 C, | %18
 F,>E,D, | E,C, z/ G,/ | C>B,A, | B,G,F, | D,>C,B,, | C,3- | C,2 D, | G,,2 G, | E,>D,C, | G,2 E, | %28
 D,2 G,, | C,3 | D,3 | G,,2 C, | %32
"^Notes:This song was printed on one side of a single sheet, without details of printer, place of publication or date, bearingonly the attribution ‘Words & Music by J. Stephenson’.C. Humpries and W. C. Smith, in Music Publishing in the British Isles (p275, 2nd edition, Oxford: Blackwell, 1970)identify the composer as Joseph Stephenson, the publishers as James Rivington and James Fletcher, and thedate as 1758. Similarly, Humphries and Smith attribute the publication of Stephenson’s anthem Sing, O ye heav’nsand fuguing-tune Look down, O God, regard my cry to Rivington and Fletcher in 1758: all three works allude to therecent successes of Frederick II, particularly the victories at Rossbach (5 November 1757) and Leuthen(5 December 1757).The order of parts in the source as given here. The top stave is printed in the alto clef in the source, while thesecond stave down is printed in the treble clef without indication of which octave is intended: it has here beenunderstood as a tenor part.The following notes are printed as dotted crochets in the source, but have herebeen emended to dotted quavers: Bar 8, beat 1, tenor, note G; bar 35, beat 1, bass voice part, note E." D,>C,B,, | %33
 C,3- | C,2 G,/^F,/ | G,>F,E, | C,C/B,/C | G,2 C, | F,/D,/G,G,, | C,2 :| %40

